X:459
T:El Nero
Z:Jack Campin, http://www.campin.me.uk/
F:Jack Campin's Nine-Note Tunebook
% last edit 03-02-2013
S:CD WKPD-95 no 38, Ball de Bastons Catalunya, track 40
S:Ball de Bastons de Castellar del Valles
G:for a small accordion, rattle accompaniment
M:2/4
L:1/16
K:C % original key
P:intro
Q:1/4=75
CD|E2DC D2CD|E2DC D4   |G2EG A2FA|            G2F2 E2
CD|E2DC D2CD|E2DC D4   |G2EG A2FA|            G2F2 E4||
P:dance
Q:1/4=82
   G2Ez G2Ez|AGFE F2Dz|F2Dz F2Dz|[1           GFED E4:|\
                                 [2           GFED C2||
CD|E2DC D2CD|E2DC D4  |G2EG A2FA|             G2F2 E2
CD|E2DC D2CD|E2DC D4  |G2EG A2FA|"^on repeats"G2F2 E4||\
                                 "^last time" G2B2 c4|]

